X: 12
T: Newcastell
T: for two
C: 
C: 
P: AA B C DD EE F
N: 
K: F major
M: 6/8
L: 1/8
P: A
"^Drone: C"F3 C3 | D3 C3 | G3 A2G | FE2 D3 | F3 C3 | D3 C3 | G2F ED2 | C6 :| 
P: B
E3 G3 | A3 E3 | E2E G2G | A2A A3 | \
P: C
A3 G3 | cBA GF2 |: \
P: D
A3 E3 | BAG FE2 :: 
P: E
F2G A2B | A2G F3 :| \
P: F
E2E E3 | E2E E3 | F2G A2B | A2G F3 |] 

